DevCon_2019/Icons/SVG/icon_twitter_blue.svg

<svg height="23" viewBox="0 0 28 23" width="28" xmlns="http://www.w3.org/2000/svg"><path d="m27.1015027 70.8125386c.0364585.1458333.0546873.3828116.0546873.7109358 0 2.6249937-.6380196 5.1588416-1.9140579 7.6015444-1.3124969 2.5885352-3.1536386 4.6484264-5.5234243 6.1796727-2.5885353 1.7135373-5.5598829 2.5703064-8.9140413 2.5703064-3.20832595 0-6.14321423-.8567691-8.8046665-2.5703064.40104043.0364586.85676907.0546874 1.36718424.0546874 2.66145227 0 5.04946685-.8203105 7.16404546-2.4609316-1.27603839 0-2.39712946-.3736968-3.36327327-1.1210911s-1.63150625-1.6861936-1.99608899-2.8163995c.36458274.0364585.7109358.0546873 1.03906002.0546873.51041517 0 1.02083118-.0546873 1.53124635-.1640621-1.31249687-.2916657-2.40624426-.9661438-3.28124218-2.0234326-.87499791-1.0572889-1.31249687-2.260411-1.31249687-3.6093664v-.1093748c.8020817.4739575 1.65884994.7291647 2.57030637.7656232-.76562317-.5468737-1.38541308-1.2395807-1.85937056-2.0781201-.47395748-.8385393-.71093581-1.7591106-.71093581-2.7617121s.27343685-1.9596305.82031055-2.8710869c1.42187161 1.7864543 3.16275259 3.2083259 5.22264379 4.2656148s4.2565 1.6406211 6.589828 1.7499958c-.0729162-.4374989-.1093747-.8749979-.1093747-1.3124968 0-1.0208312.255208-1.9778602.7656232-2.8710869.5104151-.8932268 1.2031221-1.5950486 2.07812-2.1054638.8749979-.5104151 1.8229121-.7656231 2.8437432-.7656231.8385394 0 1.6132774.1640621 2.3242133.4921863.7109358.3281242 1.3398405.7656232 1.8867142 1.3124969 1.3124969-.2552081 2.5338479-.7109359 3.6640538-1.3671843-.437499 1.3489554-1.2760384 2.4062443-2.515619 3.1718674 1.0937474-.1458332 2.1874948-.4557278 3.2812421-.9296852-.8020817 1.1666636-1.7682246 2.1692659-2.8984305 3.0078053z" fill="#00aced" fill-rule="evenodd" transform="translate(-2 -65)"/></svg>

<?xml version="1.0" encoding="UTF-8"?>
<svg width="28px" height="23px" viewBox="0 0 28 23" version="1.1" xmlns="http://www.w3.org/2000/svg" xmlns:xlink="http://www.w3.org/1999/xlink">
    <!-- Generator: Sketch 52.6 (67491) - http://www.bohemiancoding.com/sketch -->
    <title></title>
    <desc>Created with Sketch.</desc>
    <g id="Page-1" stroke="none" stroke-width="1" fill="none" fill-rule="evenodd">
        <g id="DESKTOP-1024PX" transform="translate(-12.000000, -6459.000000)" fill="#00ACED">
            <g id="FOOTER" transform="translate(0.000000, 6331.000000)">
                <g id="COLUMN-#1" transform="translate(10.000000, 63.000000)">
                    <g id="LATEST-TWEET">
                        <path d="M27.1015027,70.8125386 C27.1379612,70.9583719 27.15619,71.1953502 27.15619,71.5234744 C27.15619,74.1484681 26.5181704,76.682316 25.2421321,79.1250188 C23.9296352,81.713554 22.0884935,83.7734452 19.7187078,85.3046915 C17.1301725,87.0182288 14.1588249,87.8749979 10.8046665,87.8749979 C7.59634055,87.8749979 4.66145227,87.0182288 2,85.3046915 C2.40104043,85.3411501 2.85676907,85.3593789 3.36718424,85.3593789 C6.02863651,85.3593789 8.41665109,84.5390684 10.5312297,82.8984473 C9.25519131,82.8984473 8.13410024,82.5247505 7.16795643,81.7773562 C6.20181262,81.0299619 5.53645018,80.0911626 5.17186744,78.9609567 C5.53645018,78.9974152 5.88280324,79.015644 6.21092746,79.015644 C6.72134263,79.015644 7.23175864,78.9609567 7.74217381,78.8515819 C6.42967694,78.5599162 5.33592955,77.8854381 4.46093163,76.8281493 C3.58593372,75.7708604 3.14843476,74.5677383 3.14843476,73.2187829 L3.14843476,73.1094081 C3.95051646,73.5833656 4.8072847,73.8385728 5.71874113,73.8750313 C4.95311796,73.3281576 4.33332805,72.6354506 3.85937057,71.7969112 C3.38541309,70.9583719 3.14843476,70.0378006 3.14843476,69.0351991 C3.14843476,68.0325976 3.42187161,67.0755686 3.96874531,66.1641122 C5.39061692,67.9505665 7.1314979,69.3724381 9.1913891,70.429727 C11.2512803,71.4870159 13.4478891,72.0703481 15.7812171,72.1797228 C15.7083009,71.7422239 15.6718424,71.3047249 15.6718424,70.867226 C15.6718424,69.8463948 15.9270504,68.8893658 16.4374656,67.9961391 C16.9478807,67.1029123 17.6405877,66.4010905 18.5155856,65.8906753 C19.3905835,65.3802602 20.3384977,65.1250522 21.3593288,65.1250522 C22.1978682,65.1250522 22.9726062,65.2891143 23.6835421,65.6172385 C24.3944779,65.9453627 25.0233826,66.3828617 25.5702563,66.9297354 C26.8827532,66.6745273 28.1041042,66.2187995 29.2343101,65.5625511 C28.7968111,66.9115065 27.9582717,67.9687954 26.7186911,68.7344185 C27.8124385,68.5885853 28.9061859,68.2786907 29.9999332,67.8047333 C29.1978515,68.9713969 28.2317086,69.9739992 27.1015027,70.8125386 Z" id=""></path>
                    </g>
                </g>
            </g>
        </g>
    </g>
</svg>
